!!!SOCIAL_FUNCTION:	songs of social dances
!!!PDT:	1958
!!!OTL: No_12_The_Dancers_Approach_the_Lodge_(b).krn
!!!REG: Northern California
!!!LANG: Non-Tone
!!!LING_GROUP: Penutian
**kern
*staff1
=1-
*clefF4
*k[f#]
*M3/4
12F#\L
12F#\
12F#\J
8.G\L
16F#\Jk
8D\L
16F#\Jk
16r
=2
8.G\L
16F#\Jk
12D\L
12F#\
12F#\J
16D\LL
16D\
16C\JJ
16r
=3
12F#\L
12F#\
12F#\J
8.G\L
16F#\Jk
8D\L
16F#\Jk
16r
=4
8.G\L
16F#\Jk
12D\L
12F#\
12F#\J
16D\LL
16D\
16C\JJ
16r
=5
4c\
16A\LK
8.G\J
8D\L
16F#\Jk
16r
=6
8.G\L
16F#\Jk
12D\L
12F#\
12F#\J
16D\LL
16D\
16C\JJ
16r
=7
4c\
16A\LK
(8.G\J
8D\L)
16F#\Jk
16r
=8
8.G\L
16F#\Jk
12D\L
12F#\
12F#\J
16D\LL
16D\
16C\JJ
16r
==
*-
